brandFactory_export/1.Light/Consultar documento_1Light.svg

<?xml version="1.0" encoding="UTF-8"?>
<svg width="24px" height="24px" viewBox="0 0 24 24" version="1.1" xmlns="http://www.w3.org/2000/svg" xmlns:xlink="http://www.w3.org/1999/xlink">
    <title>1.Light/Consultar documento_1Light</title>
    <g id="Symbols" stroke="none" stroke-width="1" fill="none" fill-rule="evenodd">
        <g id="1.Light/Consultar-documento_1Light" fill="#5CB615" fill-rule="nonzero">
            <path d="M16.3811705,0.0131580406 L16.6857143,0.0134453782 L16.6857143,0.0134453782 C16.7543193,0.0134453782 16.8229244,0.0341588235 16.8785214,0.0739597088 C16.8944777,0.084782504 16.9099386,0.0972527473 16.9243697,0.11092437 L23.4789916,6.66554622 C23.5428571,6.72941176 23.5764706,6.81344538 23.5764706,6.90420168 L23.5764706,22.5378151 C23.5764706,23.1865546 23.2033613,23.5596639 22.5579832,23.5596639 L8.87731092,23.5596639 C8.20168067,23.5596639 7.82857143,23.1831933 7.82857143,22.5042017 L7.82857143,16.7764706 C7.82857143,16.745534 7.83280706,16.7155387 7.84072705,16.6870359 C6.91472843,16.4008905 6.07501113,15.9154041 5.37196314,15.2813156 L0.581512605,20.2285714 C0.517647059,20.2957983 0.430252101,20.3327731 0.339495798,20.3327731 C0.154621848,20.3327731 0.00336134425,20.1848739 0.00336134425,19.9966387 C0.00336134425,19.9092437 0.0369747896,19.8218487 0.100840336,19.7613445 L4.89653761,14.8069286 C3.8316781,13.6314415 3.18319328,12.0716491 3.18319328,10.3596639 C3.18319328,7.38877218 5.13606372,4.87620724 7.82882212,4.0349515 L7.82857143,1.05546218 C7.82857143,0.396638655 8.21176471,0.0168067227 8.87394958,0.0134453782 L9.87464459,0.0129964132 C11.3175102,0.0122421521 13.9367538,0.0110030088 16.3811705,0.0131580406 Z M16.3493613,0.684951447 L8.87394958,0.685714286 C8.58487395,0.685714286 8.50084034,0.769747899 8.50084034,1.05546218 L8.50081431,3.86331968 C8.92350488,3.77879231 9.36075113,3.73445378 9.80840336,3.73445378 C13.4689076,3.73445378 16.4336134,6.69915966 16.4336134,10.3596639 C16.4336134,12.1176471 15.7344538,13.8016807 14.4941176,15.0453782 C13.2537815,16.2890756 11.5663866,16.9882353 9.80840336,16.984886 C9.36075113,16.984886 8.92350488,16.9405473 8.50081431,16.8560196 L8.50084034,22.5042017 C8.50084034,22.8134454 8.57478992,22.887395 8.88067227,22.887395 L22.5579832,22.887395 C22.8268908,22.887395 22.9042017,22.8067227 22.907563,22.5378151 L22.9073613,7.23995145 L19.9630252,7.24033613 C18.907563,7.24033613 18.0033613,6.89411765 17.3478992,6.24201681 C16.692437,5.58991597 16.3495798,4.68571429 16.3495798,3.62689076 L16.3493613,0.684951447 Z M9.80840336,4.40670921 C6.5210084,4.40670921 3.85546218,7.07226891 3.85546218,10.3596639 C3.85546218,13.6470588 6.5210084,16.312605 9.80840336,16.312605 C13.0957983,16.312605 15.7613445,13.6470588 15.7613445,10.3596639 C15.7613445,8.77983193 15.1327731,7.26722689 14.0168067,6.14789916 C12.9042017,5.02857143 11.3882353,4.40336134 9.80840336,4.40670921 Z M17.0213613,1.16195145 L17.0218487,3.62689076 C17.0218487,5.41176471 18.1747899,6.56806723 19.9630252,6.56806723 L22.4302521,6.56806723 L19.7293613,3.86795145 L17.0213613,1.16195145 Z" id="Consultar-documento_1Light"></path>
        </g>
    </g>
</svg>

<svg width="24" height="24" viewBox="0 0 24 24" xmlns="http://www.w3.org/2000/svg"><path d="M16.381.013h.305a.333.333 0 01.238.098l6.555 6.555a.333.333 0 01.097.238v15.634c0 .649-.373 1.022-1.018 1.022H8.878c-.676 0-1.05-.377-1.05-1.056v-5.728c0-.03.005-.06.013-.089a6.596 6.596 0 01-2.469-1.406L.582 20.23a.335.335 0 11-.48-.467l4.795-4.955a6.601 6.601 0 01-1.714-4.447A6.626 6.626 0 017.83 4.035v-2.98c0-.658.383-1.038 1.045-1.042h1c1.444 0 4.063-.002 6.507 0zm-.032.672H8.874c-.29 0-.373.085-.373.37v2.808a6.623 6.623 0 017.933 6.496c0 1.759-.7 3.443-1.94 4.686a6.602 6.602 0 01-4.686 1.94c-.447 0-.884-.044-1.307-.129v5.648c0 .31.074.383.38.383h13.677c.269 0 .346-.08.35-.35V7.24h-2.945c-1.055 0-1.96-.346-2.615-.998-.656-.652-.998-1.556-.998-2.615V.685zM9.81 4.407a5.953 5.953 0 104.208 1.74 5.914 5.914 0 00-4.209-1.74zm7.212-3.245v2.465c0 1.785 1.154 2.941 2.942 2.941h2.467l-2.7-2.7-2.709-2.706z" fill="#5CB615" fill-rule="nonzero"/></svg>
